img/offer/offer__icon1.svg

<svg width="41" height="42" viewBox="0 0 41 42" fill="none" xmlns="http://www.w3.org/2000/svg">
<g opacity="0.6">
<path fill-rule="evenodd" clip-rule="evenodd" d="M22.4605 1.37082C18.7335 1.9123 16.4411 2.27925 16.2912 2.35854C16.1599 2.42797 12.6065 5.9417 8.39481 10.1669C1.33782 17.2464 0.717359 17.8902 0.485569 18.3744C-0.173108 19.7505 -0.16149 21.1568 0.51938 22.4796C0.796198 23.0173 1.29583 23.5395 7.27368 29.5385C10.8241 33.1016 13.913 36.1595 14.1378 36.3337L14.5467 36.6508L14.5939 37.3517C14.7194 39.2144 15.8549 40.7114 17.5997 41.3146L18.1357 41.5H27.7903H37.4449L37.9809 41.3146C39.2917 40.8615 40.2711 39.8894 40.7896 38.5272L40.9702 38.0526L40.992 26.9679C41.0117 16.8575 41.0021 15.861 40.8831 15.6308C40.8114 15.492 39.8442 14.1665 38.7339 12.6853C37.6237 11.204 36.6866 9.94489 36.6518 9.88725C36.6169 9.82952 36.6319 9.47556 36.6851 9.10059C36.8292 8.08488 36.7869 8.00848 35.2035 6.42635L33.8816 5.10542L35.199 3.77888C36.8075 2.15915 36.9515 1.89218 36.6036 1.17311C36.3222 0.591296 35.6262 0.339554 35.0523 0.611981C34.9129 0.678203 34.2053 1.3272 33.4798 2.05413L32.1607 3.37586L30.7968 2.01941C30.0466 1.27333 29.3313 0.624408 29.2072 0.577266C29.0832 0.530205 28.8489 0.49557 28.6865 0.50046C28.5241 0.505271 25.7224 0.896995 22.4605 1.37082ZM29.374 4.04057L30.4346 5.10406L29.5937 5.94275L28.7526 6.78143L28.2515 6.29134C27.6507 5.70383 27.5052 5.62262 27.0545 5.62302C26.1723 5.62374 25.6011 6.54597 25.9969 7.33038C26.1676 7.66879 29.3317 10.8677 29.789 11.1642C30.7417 11.782 31.8116 11.0332 31.5986 9.89759C31.5585 9.68313 31.3985 9.45255 31.0126 9.05249L30.4818 8.50234L31.3201 7.66349L32.1585 6.82465L33.2152 7.88726L34.2719 8.94987L33.4949 14.3815L32.7178 19.8131L25.3867 27.1543C21.0774 31.4695 17.9235 34.5667 17.7351 34.6682C17.3134 34.8954 16.4238 34.9096 16.0125 34.6956C15.6221 34.4925 2.82599 21.6996 2.60998 21.2965C2.37931 20.8659 2.36673 19.9902 2.58474 19.5327C2.6877 19.3165 5.1221 16.8213 10.0539 11.8771L17.3702 4.54229L22.7205 3.76814C25.6631 3.34234 28.1253 2.99014 28.192 2.98549C28.2588 2.98084 28.7906 3.45563 29.374 4.04057ZM20.3751 9.66396C20.2407 9.72249 20.0366 9.88243 19.9215 10.0193C19.765 10.2055 18.9813 12.4632 16.8146 18.9699C13.7093 28.2953 13.8289 27.8652 14.1796 28.4434C14.5839 29.11 15.6958 29.1103 16.1321 28.444C16.3174 28.161 22.0216 10.9995 22.0216 10.725C22.0216 10.353 21.7112 9.89101 21.3406 9.71151C20.9582 9.52631 20.718 9.51444 20.3751 9.66396ZM38.6067 26.9732C38.6067 38.7157 38.6492 37.894 38.0078 38.5357C37.3706 39.1735 38.0275 39.1349 27.7903 39.1349C17.5531 39.1349 18.2101 39.1735 17.5728 38.5357C17.2948 38.2577 16.9739 37.6308 16.9739 37.3659C16.9739 37.3347 17.1452 37.2845 17.3545 37.2545C17.9366 37.1709 18.4496 37.0037 18.9986 36.7189C19.4305 36.4948 20.5318 35.4275 27.1699 28.7992C33.3288 22.6496 34.8648 21.075 34.9571 20.8166C35.0204 20.6396 35.2932 18.9073 35.5632 16.9671C35.8332 15.027 36.0703 13.3896 36.0901 13.3286C36.1106 13.2655 36.6603 13.9296 37.3664 14.8707L38.6067 16.5237V26.9732ZM10.4928 15.731C9.20676 15.9837 8.04853 17.0694 7.72332 18.3269C7.3836 19.6406 7.75608 20.9391 8.73965 21.87C9.66898 22.7494 10.8848 23.0598 12.1298 22.7354C13.8769 22.2802 15.0511 20.4547 14.7351 18.6852C14.3751 16.6695 12.4696 15.3425 10.4928 15.731ZM23.9813 15.7561C22.9387 16.0096 22.0471 16.7289 21.5644 17.7063C21.2996 18.2424 21.2635 18.3903 21.2344 19.0558C21.2082 19.6542 21.2354 19.914 21.3707 20.3597C22.1438 22.9071 25.4176 23.7025 27.3202 21.8054C28.7116 20.4179 28.7243 18.2157 27.3492 16.7731C26.4726 15.8535 25.1828 15.4641 23.9813 15.7561ZM11.8343 18.2691C12.3874 18.6823 12.5319 19.2418 12.2309 19.8049C11.8109 20.5903 10.7404 20.6726 10.2182 19.9595C9.99018 19.6482 9.95605 19.0394 10.1471 18.6929C10.4692 18.1086 11.3301 17.8923 11.8343 18.2691ZM25.4796 18.2991C25.7922 18.5218 25.9609 18.8773 25.9609 19.3131C25.9609 20.1755 24.9419 20.7449 24.2042 20.2947C23.4838 19.8553 23.4184 18.7779 24.0835 18.3057C24.2054 18.2191 24.3771 18.1288 24.4653 18.1048C24.7368 18.031 25.238 18.127 25.4796 18.2991Z" fill="url(#paint0_linear_1924_5727)"/>
<path fill-rule="evenodd" clip-rule="evenodd" d="M22.4605 1.37082C18.7335 1.9123 16.4411 2.27925 16.2912 2.35854C16.1599 2.42797 12.6065 5.9417 8.39481 10.1669C1.33782 17.2464 0.717359 17.8902 0.485569 18.3744C-0.173108 19.7505 -0.16149 21.1568 0.51938 22.4796C0.796198 23.0173 1.29583 23.5395 7.27368 29.5385C10.8241 33.1016 13.913 36.1595 14.1378 36.3337L14.5467 36.6508L14.5939 37.3517C14.7194 39.2144 15.8549 40.7114 17.5997 41.3146L18.1357 41.5H27.7903H37.4449L37.9809 41.3146C39.2917 40.8615 40.2711 39.8894 40.7896 38.5272L40.9702 38.0526L40.992 26.9679C41.0117 16.8575 41.0021 15.861 40.8831 15.6308C40.8114 15.492 39.8442 14.1665 38.7339 12.6853C37.6237 11.204 36.6866 9.94489 36.6518 9.88725C36.6169 9.82952 36.6319 9.47556 36.6851 9.10059C36.8292 8.08488 36.7869 8.00848 35.2035 6.42635L33.8816 5.10542L35.199 3.77888C36.8075 2.15915 36.9515 1.89218 36.6036 1.17311C36.3222 0.591296 35.6262 0.339554 35.0523 0.611981C34.9129 0.678203 34.2053 1.3272 33.4798 2.05413L32.1607 3.37586L30.7968 2.01941C30.0466 1.27333 29.3313 0.624408 29.2072 0.577266C29.0832 0.530205 28.8489 0.49557 28.6865 0.50046C28.5241 0.505271 25.7224 0.896995 22.4605 1.37082ZM29.374 4.04057L30.4346 5.10406L29.5937 5.94275L28.7526 6.78143L28.2515 6.29134C27.6507 5.70383 27.5052 5.62262 27.0545 5.62302C26.1723 5.62374 25.6011 6.54597 25.9969 7.33038C26.1676 7.66879 29.3317 10.8677 29.789 11.1642C30.7417 11.782 31.8116 11.0332 31.5986 9.89759C31.5585 9.68313 31.3985 9.45255 31.0126 9.05249L30.4818 8.50234L31.3201 7.66349L32.1585 6.82465L33.2152 7.88726L34.2719 8.94987L33.4949 14.3815L32.7178 19.8131L25.3867 27.1543C21.0774 31.4695 17.9235 34.5667 17.7351 34.6682C17.3134 34.8954 16.4238 34.9096 16.0125 34.6956C15.6221 34.4925 2.82599 21.6996 2.60998 21.2965C2.37931 20.8659 2.36673 19.9902 2.58474 19.5327C2.6877 19.3165 5.1221 16.8213 10.0539 11.8771L17.3702 4.54229L22.7205 3.76814C25.6631 3.34234 28.1253 2.99014 28.192 2.98549C28.2588 2.98084 28.7906 3.45563 29.374 4.04057ZM20.3751 9.66396C20.2407 9.72249 20.0366 9.88243 19.9215 10.0193C19.765 10.2055 18.9813 12.4632 16.8146 18.9699C13.7093 28.2953 13.8289 27.8652 14.1796 28.4434C14.5839 29.11 15.6958 29.1103 16.1321 28.444C16.3174 28.161 22.0216 10.9995 22.0216 10.725C22.0216 10.353 21.7112 9.89101 21.3406 9.71151C20.9582 9.52631 20.718 9.51444 20.3751 9.66396ZM38.6067 26.9732C38.6067 38.7157 38.6492 37.894 38.0078 38.5357C37.3706 39.1735 38.0275 39.1349 27.7903 39.1349C17.5531 39.1349 18.2101 39.1735 17.5728 38.5357C17.2948 38.2577 16.9739 37.6308 16.9739 37.3659C16.9739 37.3347 17.1452 37.2845 17.3545 37.2545C17.9366 37.1709 18.4496 37.0037 18.9986 36.7189C19.4305 36.4948 20.5318 35.4275 27.1699 28.7992C33.3288 22.6496 34.8648 21.075 34.9571 20.8166C35.0204 20.6396 35.2932 18.9073 35.5632 16.9671C35.8332 15.027 36.0703 13.3896 36.0901 13.3286C36.1106 13.2655 36.6603 13.9296 37.3664 14.8707L38.6067 16.5237V26.9732ZM10.4928 15.731C9.20676 15.9837 8.04853 17.0694 7.72332 18.3269C7.3836 19.6406 7.75608 20.9391 8.73965 21.87C9.66898 22.7494 10.8848 23.0598 12.1298 22.7354C13.8769 22.2802 15.0511 20.4547 14.7351 18.6852C14.3751 16.6695 12.4696 15.3425 10.4928 15.731ZM23.9813 15.7561C22.9387 16.0096 22.0471 16.7289 21.5644 17.7063C21.2996 18.2424 21.2635 18.3903 21.2344 19.0558C21.2082 19.6542 21.2354 19.914 21.3707 20.3597C22.1438 22.9071 25.4176 23.7025 27.3202 21.8054C28.7116 20.4179 28.7243 18.2157 27.3492 16.7731C26.4726 15.8535 25.1828 15.4641 23.9813 15.7561ZM11.8343 18.2691C12.3874 18.6823 12.5319 19.2418 12.2309 19.8049C11.8109 20.5903 10.7404 20.6726 10.2182 19.9595C9.99018 19.6482 9.95605 19.0394 10.1471 18.6929C10.4692 18.1086 11.3301 17.8923 11.8343 18.2691ZM25.4796 18.2991C25.7922 18.5218 25.9609 18.8773 25.9609 19.3131C25.9609 20.1755 24.9419 20.7449 24.2042 20.2947C23.4838 19.8553 23.4184 18.7779 24.0835 18.3057C24.2054 18.2191 24.3771 18.1288 24.4653 18.1048C24.7368 18.031 25.238 18.127 25.4796 18.2991Z" fill="#FDFEFE"/>
</g>
<defs>
<linearGradient id="paint0_linear_1924_5727" x1="0" y1="0.5" x2="41.82" y2="42.525" gradientUnits="userSpaceOnUse">
<stop stop-color="#0ABD92"/>
<stop offset="1" stop-color="#009DB8"/>
</linearGradient>
</defs>
</svg>

<svg width="41" height="42" fill="none" xmlns="http://www.w3.org/2000/svg"><g opacity=".6" fill-rule="evenodd" clip-rule="evenodd"><path d="M22.46 1.37c-3.727.542-6.019.91-6.169.989-.131.069-3.684 3.583-7.896 7.808-7.057 7.08-7.678 7.723-7.91 8.207-.658 1.377-.646 2.783.034 4.106.277.537.777 1.06 6.755 7.058 3.55 3.564 6.639 6.622 6.864 6.796l.409.317.047.7c.125 1.863 1.26 3.36 3.006 3.964l.536.185h19.309l.536-.185c1.31-.453 2.29-1.426 2.809-2.788l.18-.474.022-11.085c.02-10.11.01-11.107-.109-11.337-.072-.139-1.039-1.465-2.15-2.946a269.082 269.082 0 01-2.081-2.798c-.035-.057-.02-.411.033-.786.144-1.016.102-1.093-1.482-2.675l-1.321-1.32 1.317-1.327c1.608-1.62 1.753-1.887 1.405-2.606a1.174 1.174 0 00-1.552-.561c-.14.066-.847.715-1.572 1.442l-1.32 1.322-1.363-1.357c-.75-.746-1.466-1.395-1.59-1.442a1.628 1.628 0 00-.52-.077c-.163.005-2.965.397-6.227.87zm6.914 2.67l1.06 1.064-.84.839-.841.838-.502-.49c-.6-.587-.746-.668-1.197-.668-.882 0-1.453.923-1.057 1.707.17.339 3.335 3.538 3.792 3.834.953.618 2.023-.13 1.81-1.266-.04-.215-.2-.445-.586-.846l-.531-.55.838-.839.838-.838 1.057 1.062 1.057 1.063-.777 5.432-.777 5.431-7.331 7.341c-4.31 4.316-7.463 7.413-7.652 7.514-.422.227-1.311.242-1.723.028-.39-.203-13.186-12.996-13.402-13.4-.23-.43-.243-1.306-.025-1.763.103-.216 2.537-2.712 7.469-7.656l7.316-7.335 5.35-.774c2.943-.426 5.405-.778 5.472-.783.067-.004.599.47 1.182 1.056zm-8.999 5.624a1.515 1.515 0 00-.453.355c-.157.187-.94 2.444-3.107 8.95-3.106 9.326-2.986 8.896-2.635 9.474.404.667 1.516.667 1.952.001.185-.283 5.89-17.444 5.89-17.719 0-.372-.31-.834-.681-1.013-.383-.186-.623-.198-.966-.048zm18.232 17.31c0 11.742.042 10.92-.6 11.562-.636.637.02.599-10.217.599s-9.58.038-10.217-.6c-.278-.277-.6-.904-.6-1.17 0-.03.172-.08.382-.11a4.982 4.982 0 001.644-.536c.431-.224 1.533-1.291 8.17-7.92 6.16-6.15 7.696-7.724 7.788-7.982.063-.177.336-1.91.606-3.85.27-1.94.507-3.577.527-3.638.02-.064.57.6 1.276 1.542l1.24 1.653v10.45zM10.493 15.73c-1.286.253-2.444 1.338-2.77 2.596-.34 1.314.033 2.612 1.017 3.543.929.88 2.145 1.19 3.39.865 1.747-.455 2.921-2.28 2.605-4.05-.36-2.015-2.265-3.342-4.242-2.954zm13.488.025a3.685 3.685 0 00-2.417 1.95c-.264.536-.3.684-.33 1.35-.026.598.001.858.137 1.304.773 2.547 4.047 3.343 5.95 1.445 1.39-1.387 1.403-3.59.028-5.032-.876-.92-2.166-1.309-3.368-1.017zM11.834 18.27c.553.413.698.973.397 1.536-.42.785-1.49.868-2.013.154-.228-.31-.262-.92-.07-1.266.321-.584 1.182-.8 1.686-.424zm13.646.03c.312.223.48.578.48 1.014 0 .863-1.018 1.432-1.756.982-.72-.44-.786-1.517-.12-1.99.121-.086.293-.176.381-.2.272-.074.773.022 1.015.194z" fill="url(#paint0_linear_1924_5727)"/><path d="M22.46 1.37c-3.727.542-6.019.91-6.169.989-.131.069-3.684 3.583-7.896 7.808-7.057 7.08-7.678 7.723-7.91 8.207-.658 1.377-.646 2.783.034 4.106.277.537.777 1.06 6.755 7.058 3.55 3.564 6.639 6.622 6.864 6.796l.409.317.047.7c.125 1.863 1.26 3.36 3.006 3.964l.536.185h19.309l.536-.185c1.31-.453 2.29-1.426 2.809-2.788l.18-.474.022-11.085c.02-10.11.01-11.107-.109-11.337-.072-.139-1.039-1.465-2.15-2.946a269.082 269.082 0 01-2.081-2.798c-.035-.057-.02-.411.033-.786.144-1.016.102-1.093-1.482-2.675l-1.321-1.32 1.317-1.327c1.608-1.62 1.753-1.887 1.405-2.606a1.174 1.174 0 00-1.552-.561c-.14.066-.847.715-1.572 1.442l-1.32 1.322-1.363-1.357c-.75-.746-1.466-1.395-1.59-1.442a1.628 1.628 0 00-.52-.077c-.163.005-2.965.397-6.227.87zm6.914 2.67l1.06 1.064-.84.839-.841.838-.502-.49c-.6-.587-.746-.668-1.197-.668-.882 0-1.453.923-1.057 1.707.17.339 3.335 3.538 3.792 3.834.953.618 2.023-.13 1.81-1.266-.04-.215-.2-.445-.586-.846l-.531-.55.838-.839.838-.838 1.057 1.062 1.057 1.063-.777 5.432-.777 5.431-7.331 7.341c-4.31 4.316-7.463 7.413-7.652 7.514-.422.227-1.311.242-1.723.028-.39-.203-13.186-12.996-13.402-13.4-.23-.43-.243-1.306-.025-1.763.103-.216 2.537-2.712 7.469-7.656l7.316-7.335 5.35-.774c2.943-.426 5.405-.778 5.472-.783.067-.004.599.47 1.182 1.056zm-8.999 5.624a1.515 1.515 0 00-.453.355c-.157.187-.94 2.444-3.107 8.95-3.106 9.326-2.986 8.896-2.635 9.474.404.667 1.516.667 1.952.001.185-.283 5.89-17.444 5.89-17.719 0-.372-.31-.834-.681-1.013-.383-.186-.623-.198-.966-.048zm18.232 17.31c0 11.742.042 10.92-.6 11.562-.636.637.02.599-10.217.599s-9.58.038-10.217-.6c-.278-.277-.6-.904-.6-1.17 0-.03.172-.08.382-.11a4.982 4.982 0 001.644-.536c.431-.224 1.533-1.291 8.17-7.92 6.16-6.15 7.696-7.724 7.788-7.982.063-.177.336-1.91.606-3.85.27-1.94.507-3.577.527-3.638.02-.064.57.6 1.276 1.542l1.24 1.653v10.45zM10.493 15.73c-1.286.253-2.444 1.338-2.77 2.596-.34 1.314.033 2.612 1.017 3.543.929.88 2.145 1.19 3.39.865 1.747-.455 2.921-2.28 2.605-4.05-.36-2.015-2.265-3.342-4.242-2.954zm13.488.025a3.685 3.685 0 00-2.417 1.95c-.264.536-.3.684-.33 1.35-.026.598.001.858.137 1.304.773 2.547 4.047 3.343 5.95 1.445 1.39-1.387 1.403-3.59.028-5.032-.876-.92-2.166-1.309-3.368-1.017zM11.834 18.27c.553.413.698.973.397 1.536-.42.785-1.49.868-2.013.154-.228-.31-.262-.92-.07-1.266.321-.584 1.182-.8 1.686-.424zm13.646.03c.312.223.48.578.48 1.014 0 .863-1.018 1.432-1.756.982-.72-.44-.786-1.517-.12-1.99.121-.086.293-.176.381-.2.272-.074.773.022 1.015.194z" fill="#FDFEFE"/></g><defs><linearGradient id="paint0_linear_1924_5727" x1="0" y1=".5" x2="41.82" y2="42.525" gradientUnits="userSpaceOnUse"><stop stop-color="#0ABD92"/><stop offset="1" stop-color="#009DB8"/></linearGradient></defs></svg>
